packages/ui-icons/svg/Solid/pinterest.svg

<svg viewBox="0 0 1920 1920" version="1.1" xmlns="http://www.w3.org/2000/svg">
    <path d="M796.862588,1332.48 C745.587294,1596.87529 679.290824,1787.52 494.067294,1920 C436.806118,1520.52706 578.095529,1220.55529 643.601412,901.835294 C531.789647,716.724706 657.041412,344.018824 892.636706,435.727059 C1182.55671,548.781176 662.462588,1097.11059 1025.68141,1169.05412 C1404.93788,1244.04706 1540.69318,596.894118 1305.66259,361.750588 C965.935529,22.2494118 289.079059,310.136471 394.453176,791.491765 C436.919059,985.524706 292.467294,1040.75294 292.467294,1040.75294 C175.460235,993.317647 164.279059,829.101176 170.264941,668.837647 C183.704941,300.310588 506.490824,42.24 830.293176,6.43764706 C1239.81788,-38.7388235 1624.15671,154.503529 1677.12612,533.985882 C1736.98494,962.145882 1500.14729,1454.00471 1062.16141,1420.57412 C943.573176,1411.53882 796.862588,1332.48 796.862588,1332.48" stroke="none" stroke-width="1" fill-rule="evenodd"/>
</svg>

<svg viewBox="0 0 1920 1920" version="1.1" xmlns="http://www.w3.org/2000/svg">
    <path d="M796.863 1332.48C745.587 1596.875 679.29 1787.52 494.067 1920c-57.26-399.473 84.029-699.445 149.534-1018.165-111.811-185.11 13.44-557.816 249.036-466.108 289.92 113.054-230.174 661.384 133.044 733.327 379.257 74.993 515.012-572.16 279.982-807.303-339.727-339.502-1016.584-51.615-911.21 429.74 42.466 194.034-101.986 249.262-101.986 249.262C175.46 993.318 164.28 829.1 170.265 668.838 183.705 300.31 506.49 42.24 830.293 6.438c409.525-45.177 793.864 148.066 846.833 527.548 59.859 428.16-176.979 920.019-614.965 886.588-118.588-9.035-265.298-88.094-265.298-88.094" stroke="none" stroke-width="1" fill-rule="evenodd"/>
</svg>
